!!!SOCIAL_FUNCTION:	songs used in the treatment of the sick
!!!PDT:	1929
!!!OTL: No_89_I_Die_Here.krn
!!!REG: Southwest
!!!LANG: Non-Tone
!!!LING_GROUP: Uto-Aztecan
**kern
*staff1
=1-
*clefF4
*k[f#c#g#]
*M2/4
4E\
8c#\L
8c#\J
=2||
*M3/8
4c#\
8B\
=3||
*M2/4
8B\L
8A\J
12A\L
12A\
12A\J
=4
4A\
8E\L
8E\J
=5
2A\
=6!|:
8A\L
8A\J
8B\L
8A\J
=7||
*M3/8
4A\
8E\
=8||
*M2/4
8F#\L
8E\J
12E\L
12E\
12E\J
=9
4E\
8E\L
8E\J
=10||
*M3/4
2E\
8A\L
8A\J
=11||
*M2/4
2B\
=12
12B\L
12B\
12B\J
4A\
=13
4.A\
8E\
=14||
*M3/8
8F#\L
8E\
8E\J
=15||
*M2/4
4.E\
8E\
=16
8E\L
8E\J
8C#/L
8E/J
=17
2E\
=18
16E\LK
8.E\J
8F#\L
8E\J
=19||
*M3/8
4E\
8C#/
=20||
*M2/4
4E\
12E\L
12E\
12E\J
=21
4E\
8C#/L
8C#/J
=22
4E\
4E\
==:|!
*-
